X: 1
T: The Traveller
R: reel
S: Fiddle Hell Online 2021-11-5 workshop handout
S: https://thesession.org/tunes/143 (with handwritten variants from the handout)
M: 4/4
L: 1/8
K: G
|:\
G2BG dGBG | ABcd cBAG | Bdgd (3efg dB | cBAG FADF |
G2BG dGBG | A~ccd cBAG | Bdgd (3efg dB | cAFA G4 :|
|:\
g2dg Bgdg | ga/g/bg agef | g2dg BgdB | cBAG FADf |
g2dg Bgdg | ga/g/bg agef | gfga gfed | (3efg fa g2 ef :|
